public/images/multiplatform/hero/web.svg

<svg width="48" height="48" viewBox="0 0 48 48" fill="none" xmlns="http://www.w3.org/2000/svg">
    <path d="M44.8125 24C44.8125 12.5738 35.64 3.25876 24.2737 3.01126C24.2137 3.00751 24.1537 3.00375 24.0938 3.00375C24.1238 3.00375 24.1537 3 24.1875 3C24.15 3 24.1087 3.00375 24.0712 3.00375C24.0487 3.00375 24.0263 3 24 3C23.9737 3 23.955 3.00375 23.9288 3.00375C23.8913 3.00375 23.85 3 23.8125 3C23.8425 3 23.8762 3.00375 23.9062 3.00375C23.8463 3.00375 23.7863 3.00751 23.7263 3.01126C12.36 3.25876 3.1875 12.5738 3.1875 24C3.1875 35.4263 12.36 44.7412 23.7263 44.9887C23.7863 44.9925 23.8463 44.9962 23.9062 44.9962C23.8762 44.9962 23.8463 45 23.8125 45C23.85 45 23.8913 44.9962 23.9288 44.9962C23.9513 44.9962 23.9737 45 24 45C24.0263 45 24.045 44.9962 24.0712 44.9962C24.1087 44.9962 24.15 45 24.1875 45C24.1575 45 24.1238 44.9962 24.0938 44.9962C24.1537 44.9962 24.2137 44.9925 24.2737 44.9887C35.64 44.7412 44.8125 35.4263 44.8125 24ZM24 6C26.3925 6 29.6812 12.24 29.9775 22.5H18.0263C18.3188 12.24 21.6075 6 24 6ZM29.9775 25.5C29.6812 35.76 26.3925 42 24 42C21.6075 42 18.3188 35.76 18.0225 25.5H29.9775ZM29.3625 41.1225C31.56 37.38 32.7975 31.4325 32.9737 25.5H41.745C41.1375 32.8275 36.1238 38.925 29.3625 41.1225ZM41.745 22.5H32.9737C32.7937 16.5712 31.56 10.62 29.3625 6.87751C36.1238 9.07501 41.1375 15.1725 41.745 22.5ZM18.6375 6.87751C16.44 10.62 15.2025 16.5675 15.0263 22.5H6.25497C6.86247 15.1725 11.8762 9.07501 18.6375 6.87751ZM6.25497 25.5H15.0263C15.2063 31.4288 16.44 37.38 18.6375 41.1225C11.8762 38.925 6.86247 32.8275 6.25497 25.5Z" fill="white"/>
</svg>

<svg xmlns="http://www.w3.org/2000/svg" width="48" height="48" fill="none" viewBox="0 0 48 48">
    <path fill="#fff" d="M44.813 24c0-11.426-9.173-20.741-20.54-20.989q-.09-.006-.18-.007c.03 0 .06-.004.095-.004-.038 0-.08.004-.117.004C24.05 3.004 24.026 3 24 3s-.045.004-.071.004c-.038 0-.079-.004-.116-.004.03 0 .063.004.093.004q-.09.001-.18.007C12.36 3.26 3.188 12.574 3.188 24s9.172 20.741 20.538 20.989q.09.006.18.007-.044.002-.093.004c.037 0 .078-.004.116-.004q.033.002.071.004c.026 0 .045-.004.071-.004q.059.002.116.004c-.03 0-.063-.004-.093-.004q.09-.001.18-.007C35.64 44.74 44.813 35.426 44.813 24M24 6c2.392 0 5.681 6.24 5.977 16.5h-11.95C18.318 12.24 21.606 6 24 6m5.977 19.5C29.682 35.76 26.393 42 24 42s-5.681-6.24-5.977-16.5zm-.614 15.623c2.197-3.743 3.435-9.69 3.61-15.623h8.772c-.607 7.328-5.621 13.425-12.382 15.623M41.745 22.5h-8.771c-.18-5.929-1.414-11.88-3.611-15.622 6.76 2.197 11.775 8.295 12.382 15.622M18.638 6.878c-2.198 3.742-3.436 9.69-3.612 15.622H6.255c.607-7.328 5.621-13.425 12.383-15.622M6.255 25.5h8.771c.18 5.929 1.414 11.88 3.611 15.623-6.76-2.198-11.775-8.295-12.382-15.623"/>
</svg>
